src/images_karasa_jaga_svg/cmd/sc_morphing.svg

<svg height="16" width="16" xmlns="http://www.w3.org/2000/svg" xmlns:xlink="http://www.w3.org/1999/xlink"><linearGradient id="a" gradientTransform="matrix(.76189483 0 0 1.0158609 -3.046726 -19.300523)" gradientUnits="userSpaceOnUse" x1="119.57646" x2="15.999996" y1="23.792561" y2="109.6508"><stop offset="0" stop-color="#fff"/><stop offset=".42597079" stop-color="#fff"/><stop offset=".5892781" stop-color="#e5e5e5"/><stop offset=".80219781" stop-color="#eaeaea"/><stop offset="1" stop-color="#eee"/></linearGradient><linearGradient id="b" gradientTransform="matrix(.09253752 0 0 .14870594 -6.00486 -81.716489)" gradientUnits="userSpaceOnUse" x1="399.77466" x2="399.77466" y1="1164.6696" y2="549.06134"><stop offset="0" stop-color="#717174"/><stop offset=".5" stop-color="#9c9ca1"/><stop offset="1" stop-color="#bdbdc2"/></linearGradient><linearGradient id="c" gradientTransform="matrix(0 -1.8256937 -2.2856842 0 118.85641 200.15699)" gradientUnits="userSpaceOnUse" x1="102.31124" x2="74.330322" xlink:href="#d" y1="-5.830213" y2="32"/><linearGradient id="d"><stop offset="0" stop-color="#fff"/><stop offset="1" stop-color="#fff" stop-opacity="0"/></linearGradient><linearGradient id="e" gradientTransform="matrix(.09253752 0 0 .14870594 -6.00486 -81.716489)" gradientUnits="userSpaceOnUse" x1="399.77466" x2="399.77466" y1="1164.6696" y2="549.06134"><stop offset="0" stop-color="#0968ef"/><stop offset="1" stop-color="#aecffc"/></linearGradient><linearGradient id="f" gradientTransform="matrix(0 -1.3692663 -1.7142582 0 125.14142 179.38729)" gradientUnits="userSpaceOnUse" x1="102.31124" x2="74.330322" xlink:href="#d" y1="-5.830213" y2="32"/><linearGradient id="g" gradientTransform="matrix(.09253752 0 0 .14870594 -6.00486 -81.716489)" gradientUnits="userSpaceOnUse" x1="399.77466" x2="399.77466" y1="1164.6696" y2="549.06134"><stop offset="0" stop-color="#a9cbfc"/><stop offset="1" stop-color="#aecffc"/></linearGradient><linearGradient id="h" gradientTransform="matrix(0 -1.3692663 -1.7142582 0 93.141424 155.38729)" gradientUnits="userSpaceOnUse" x1="102.31124" x2="74.330322" xlink:href="#d" y1="-5.830213" y2="32"/><g transform="scale(.125)"><rect fill="url(#g)" height="106.66698" rx="53.333488" transform="matrix(0 .74999783 .74999783 0 3.999375 5.269979)" width="106.66698" x="-7.026659" y="-5.332515"/><g fill-rule="evenodd"><rect fill="url(#a)" height="85.33358" rx="42.66679" transform="matrix(0 .74999783 .74999783 0 3.999375 5.269979)" width="85.33358" x="3.640039" y="5.334182"/><path d="m63.167969 17.896484c-15.481806 5.702793-36.132778 8.122331-52.748047 9.847657-1.5568237 3.77201-2.419922 7.908773-2.419922 12.255859 0 8.40425 3.210056 16.028058 8.472656 21.726562 18.789066-8.140394 39.921185-19.249978 54.023438-31.472656-1.487039-4.685538-4.021517-8.891679-7.328125-12.357422z" fill="url(#h)"/></g></g><rect fill="url(#e)" height="106.66698" rx="40.972454" ry="38.251125" transform="matrix(0 .09374973 .09374973 0 3.499922 3.658747)" width="106.66698" x="-7.026659" y="-5.332515"/><rect fill="url(#a)" fill-rule="evenodd" height="85.33358" rx="26.082153" ry="31.84684" transform="matrix(0 .09374973 .09374973 0 3.499922 3.658747)" width="85.33358" x="3.640039" y="5.334182"/><path d="m99.535156 40.152344c-16.457479 7.287567-40.988052 9.94131-59.535156 11.847656v24.4375c0 4.132369 1.552867 7.956009 4.203125 11.107422 20.429092-8.535045 44.685288-20.915954 59.796875-34.59375v-1.388672c0-4.26609-1.65573-8.202179-4.464844-11.410156z" fill="url(#f)" fill-rule="evenodd" transform="matrix(.125 0 0 .125 -1 0)"/><g transform="matrix(.09374973 0 0 .09374973 6.499922 6.658747)"><rect fill="url(#b)" height="106.66698" rx="3.628262" ry="4.219727" transform="matrix(0 1 1 0 0 0)" width="106.66698" x="-7.026659" y="-5.332515"/><g fill-rule="evenodd"><rect fill="url(#a)" height="85.33358" rx="1.687967" ry="2.031721" transform="matrix(0 1 1 0 0 0)" width="85.33358" x="3.640039" y="5.334182"/><path d="m90.667762 31.573906c-21.549668 19.505031-57.049677 37.035382-85.3335799 48.426048v-49.693172c27.0784579-2.783233 63.7319809-6.755703 85.3335799-18.732876z" fill="url(#c)"/></g></g></svg>

<?xml version="1.0" encoding="UTF-8" standalone="no"?>
<!-- Created with Inkscape (http://www.inkscape.org/) -->

<svg
   xmlns:dc="http://purl.org/dc/elements/1.1/"
   xmlns:cc="http://creativecommons.org/ns#"
   xmlns:rdf="http://www.w3.org/1999/02/22-rdf-syntax-ns#"
   xmlns:svg="http://www.w3.org/2000/svg"
   xmlns="http://www.w3.org/2000/svg"
   xmlns:xlink="http://www.w3.org/1999/xlink"
   xmlns:sodipodi="http://sodipodi.sourceforge.net/DTD/sodipodi-0.dtd"
   xmlns:inkscape="http://www.inkscape.org/namespaces/inkscape"
   width="128"
   height="128"
   id="svg1307"
   sodipodi:version="0.32"
   inkscape:version="0.92.3 (2405546, 2018-03-11)"
   version="1.0"
   sodipodi:docname="sc_morphing.svg"
   inkscape:export-filename="/home/rizmut/Documents/Rizmut/Github/libreoffice-style-karasa-jaga/build/images_karasa_jaga/cmd/sc_morphing.png"
   inkscape:export-xdpi="12"
   inkscape:export-ydpi="12"
   inkscape:output_extension="org.inkscape.output.svgz.inkscape">
  <defs
     id="defs1309">
    <linearGradient
       id="linearGradient2783">
      <stop
         style="stop-color:#323232;stop-opacity:1;"
         offset="0"
         id="stop2785" />
      <stop
         id="stop2787"
         offset="0.07692308"
         style="stop-color:#dfe1e1;stop-opacity:1;" />
      <stop
         style="stop-color:#b6b1b1;stop-opacity:1;"
         offset="0.26289096"
         id="stop2799" />
      <stop
         id="stop2789"
         offset="0.5"
         style="stop-color:#8d8282;stop-opacity:1;" />
      <stop
         style="stop-color:#ffffff;stop-opacity:1;"
         offset="0.78201604"
         id="stop2791" />
      <stop
         style="stop-color:#dfd9df;stop-opacity:1;"
         offset="0.9005897"
         id="stop2793" />
      <stop
         style="stop-color:#3a3a3a;stop-opacity:1;"
         offset="1"
         id="stop2795" />
    </linearGradient>
    <linearGradient
       id="linearGradient2431">
      <stop
         style="stop-color:#ffffff;stop-opacity:1;"
         offset="0"
         id="stop2433" />
      <stop
         id="stop2435"
         offset="0.42597079"
         style="stop-color:#ffffff;stop-opacity:1;" />
      <stop
         id="stop2437"
         offset="0.5892781"
         style="stop-color:#f1f1f1;stop-opacity:1;" />
      <stop
         style="stop-color:#eaeaea;stop-opacity:1;"
         offset="0.80219781"
         id="stop2439" />
      <stop
         style="stop-color:#dfdfdf;stop-opacity:1;"
         offset="1"
         id="stop2441" />
    </linearGradient>
    <linearGradient
       id="linearGradient7422">
      <stop
         style="stop-color:#b4b4b6;stop-opacity:1;"
         offset="0"
         id="stop7424" />
      <stop
         id="stop5348"
         offset="0.5"
         style="stop-color:#9c9ca1;stop-opacity:1;" />
      <stop
         id="stop7426"
         offset="1"
         style="stop-color:#cdcdd1;stop-opacity:1;" />
    </linearGradient>
    <clipPath
       clipPathUnits="userSpaceOnUse"
       id="clipPath10698">
      <path
         style="fill:#ffffff;fill-opacity:1;fill-rule:nonzero;stroke:none;stroke-width:0.80000001;stroke-linecap:round;stroke-linejoin:round;stroke-miterlimit:4;stroke-dasharray:none;stroke-dashoffset:4;stroke-opacity:1"
         d="M -128.2008,-3.392377 L -104.45558,6.3360672 L -102.43766,6.1757677 L -103.81912,-4.5678172 L -105.75454,-5.8316609 L -124.96922,-4.4459394 L -128.2008,-3.392377 z "
         id="path10700"
         sodipodi:nodetypes="ccccccc" />
    </clipPath>
    <filter
       inkscape:collect="always"
       id="filter4420">
      <feGaussianBlur
         inkscape:collect="always"
         stdDeviation="3.0486726"
         id="feGaussianBlur4422" />
    </filter>
    <mask
       maskUnits="userSpaceOnUse"
       id="mask4424">
      <rect
         style="opacity:1;fill:#ffffff;fill-opacity:1;stroke:none;stroke-width:0.163;stroke-linecap:round;stroke-linejoin:round;stroke-miterlimit:4;stroke-dasharray:none;stroke-opacity:1;filter:url(#filter4420)"
         id="rect4426"
         width="112"
         height="100"
         x="12"
         y="4"
         rx="1.1997639"
         ry="1.4444447"
         transform="matrix(1.1453342,0,0,1.1453342,-3.2375486,-15.52592)" />
    </mask>
    <linearGradient
       id="linearGradient3323">
      <stop
         style="stop-color:#c7cdd7;stop-opacity:1;"
         offset="0"
         id="stop3325" />
      <stop
         style="stop-color:#ffffff;stop-opacity:1;"
         offset="1"
         id="stop3327" />
    </linearGradient>
    <linearGradient
       id="linearGradient4199">
      <stop
         style="stop-color:#f1f1f1;stop-opacity:1;"
         offset="0"
         id="stop4201-6" />
      <stop
         style="stop-color:#ffffff;stop-opacity:1;"
         offset="1"
         id="stop4203" />
    </linearGradient>
    <linearGradient
       id="linearGradient2399-5-5">
      <stop
         id="stop2401-5-5"
         offset="0"
         style="stop-color:#0968ef;stop-opacity:1;" />
      <stop
         id="stop2403-6-4"
         offset="1"
         style="stop-color:#aecffc;stop-opacity:1;" />
    </linearGradient>
    <linearGradient
       x1="399.77466"
       y1="1164.6696"
       x2="399.77466"
       y2="549.06134"
       id="linearGradient5507"
       xlink:href="#linearGradient7422-3"
       gradientUnits="userSpaceOnUse"
       gradientTransform="matrix(0.09253752,0,0,0.14870594,30.566011,47.945876)" />
    <linearGradient
       id="linearGradient7422-3">
      <stop
         id="stop7424-5"
         style="stop-color:#717174;stop-opacity:1"
         offset="0" />
      <stop
         id="stop5348-6"
         style="stop-color:#9c9ca1;stop-opacity:1"
         offset="0.5" />
      <stop
         id="stop7426-2"
         style="stop-color:#cdcdd1;stop-opacity:1"
         offset="1" />
    </linearGradient>
    <radialGradient
       cx="-33.5"
       cy="194.5"
       r="5.5"
       fx="-33.5"
       fy="194.5"
       id="radialGradient5509"
       xlink:href="#linearGradient2399"
       gradientUnits="userSpaceOnUse"
       gradientTransform="matrix(6.6492665,0,0,6.6492656,305.03583,-1117.9053)" />
    <linearGradient
       id="linearGradient2399">
      <stop
         id="stop2401"
         style="stop-color:#a9cbfc;stop-opacity:1"
         offset="0" />
      <stop
         id="stop2403"
         style="stop-color:#aecffc;stop-opacity:1"
         offset="1" />
    </linearGradient>
    <radialGradient
       cx="194.5"
       cy="-33.5"
       r="5.5"
       fx="194.5"
       fy="-33.5"
       id="radialGradient5511"
       xlink:href="#linearGradient2222"
       gradientUnits="userSpaceOnUse"
       gradientTransform="matrix(4.9357767,0,0,4.9357767,-870.64796,211.73605)" />
    <linearGradient
       id="linearGradient2222">
      <stop
         id="stop2224"
         style="stop-color:#8fbcff;stop-opacity:1"
         offset="0" />
      <stop
         id="stop2226"
         style="stop-color:#80b3ff;stop-opacity:1"
         offset="1" />
    </linearGradient>
    <linearGradient
       x1="399.77466"
       y1="1164.6696"
       x2="399.77466"
       y2="549.06134"
       id="linearGradient5501"
       xlink:href="#linearGradient4373"
       gradientUnits="userSpaceOnUse"
       gradientTransform="matrix(0.09253752,0,0,0.14870594,-6.0048599,-81.716489)" />
    <linearGradient
       id="linearGradient4373">
      <stop
         id="stop4375"
         style="stop-color:#717174;stop-opacity:1"
         offset="0" />
      <stop
         id="stop4377"
         style="stop-color:#9c9ca1;stop-opacity:1"
         offset="0.5" />
      <stop
         id="stop4379"
         style="stop-color:#bdbdc2;stop-opacity:1"
         offset="1" />
    </linearGradient>
    <linearGradient
       x1="119.57646"
       y1="23.792561"
       x2="15.999996"
       y2="109.6508"
       id="linearGradient5503"
       xlink:href="#linearGradient2431-9"
       gradientUnits="userSpaceOnUse"
       gradientTransform="matrix(0.76189483,0,0,1.0158609,-3.0467262,-19.300523)" />
    <linearGradient
       id="linearGradient2431-9">
      <stop
         id="stop2433-1"
         style="stop-color:#ffffff;stop-opacity:1"
         offset="0" />
      <stop
         id="stop2435-2"
         style="stop-color:#ffffff;stop-opacity:1"
         offset="0.42597079" />
      <stop
         id="stop2437-7"
         style="stop-color:#e5e5e5;stop-opacity:1"
         offset="0.5892781" />
      <stop
         id="stop2439-0"
         style="stop-color:#eaeaea;stop-opacity:1"
         offset="0.80219781" />
      <stop
         id="stop2441-9"
         style="stop-color:#eeeeee;stop-opacity:1"
         offset="1" />
    </linearGradient>
    <linearGradient
       x1="102.31124"
       y1="-5.8302126"
       x2="74.330322"
       y2="32"
       id="linearGradient5505"
       xlink:href="#linearGradient3310"
       gradientUnits="userSpaceOnUse"
       gradientTransform="matrix(0,-1.8256937,-2.2856842,0,118.85641,200.15699)" />
    <linearGradient
       id="linearGradient3310">
      <stop
         id="stop3312"
         style="stop-color:#ffffff;stop-opacity:1"
         offset="0" />
      <stop
         id="stop3314"
         style="stop-color:#ffffff;stop-opacity:0"
         offset="1" />
    </linearGradient>
    <linearGradient
       inkscape:collect="always"
       xlink:href="#linearGradient4373"
       id="linearGradient1723"
       x1="0"
       y1="122"
       x2="12"
       y2="122"
       gradientUnits="userSpaceOnUse" />
    <linearGradient
       inkscape:collect="always"
       xlink:href="#linearGradient2399-5-5"
       id="linearGradient1573"
       gradientUnits="userSpaceOnUse"
       gradientTransform="matrix(0.09253752,0,0,0.14870594,-6.0048599,-81.716489)"
       x1="399.77466"
       y1="1164.6696"
       x2="399.77466"
       y2="549.06134" />
    <linearGradient
       inkscape:collect="always"
       xlink:href="#linearGradient2431-9"
       id="linearGradient1575"
       gradientUnits="userSpaceOnUse"
       gradientTransform="matrix(0.76189483,0,0,1.0158609,-3.0467262,-19.300523)"
       x1="119.57646"
       y1="23.792561"
       x2="15.999996"
       y2="109.6508" />
    <linearGradient
       inkscape:collect="always"
       xlink:href="#linearGradient3310"
       id="linearGradient1577"
       gradientUnits="userSpaceOnUse"
       gradientTransform="matrix(0,-1.3692663,-1.7142582,0,125.14142,179.38729)"
       x1="102.31124"
       y1="-5.8302126"
       x2="74.330322"
       y2="32" />
    <linearGradient
       inkscape:collect="always"
       xlink:href="#linearGradient2399"
       id="linearGradient896"
       gradientUnits="userSpaceOnUse"
       gradientTransform="matrix(0.09253752,0,0,0.14870594,-6.0048599,-81.716489)"
       x1="399.77466"
       y1="1164.6696"
       x2="399.77466"
       y2="549.06134" />
    <linearGradient
       inkscape:collect="always"
       xlink:href="#linearGradient2431-9"
       id="linearGradient898"
       gradientUnits="userSpaceOnUse"
       gradientTransform="matrix(0.76189483,0,0,1.0158609,-3.0467262,-19.300523)"
       x1="119.57646"
       y1="23.792561"
       x2="15.999996"
       y2="109.6508" />
    <linearGradient
       inkscape:collect="always"
       xlink:href="#linearGradient3310"
       id="linearGradient900"
       gradientUnits="userSpaceOnUse"
       gradientTransform="matrix(0,-1.3692663,-1.7142582,0,93.141424,155.38729)"
       x1="102.31124"
       y1="-5.8302126"
       x2="74.330322"
       y2="32" />
  </defs>
  <sodipodi:namedview
     id="base"
     pagecolor="#ffffff"
     bordercolor="#666666"
     borderopacity="1.0"
     inkscape:pageopacity="0.0"
     inkscape:pageshadow="2"
     inkscape:zoom="3.1305716"
     inkscape:cx="41.576323"
     inkscape:cy="64.574583"
     inkscape:current-layer="layer1"
     showgrid="true"
     inkscape:document-units="px"
     inkscape:grid-bbox="true"
     guidetolerance="4"
     showguides="false"
     inkscape:guide-bbox="true"
     inkscape:window-width="1366"
     inkscape:window-height="696"
     inkscape:window-x="0"
     inkscape:window-y="0"
     objecttolerance="4"
     gridtolerance="4"
     inkscape:snap-nodes="true"
     inkscape:window-maximized="1">
    <sodipodi:guide
       orientation="horizontal"
       position="-32.073749"
       id="guide2204"
       inkscape:locked="false" />
    <inkscape:grid
       id="GridFromPre046Settings"
       type="xygrid"
       originx="0"
       originy="0"
       spacingx="8"
       spacingy="8"
       color="#0000ff"
       empcolor="#0000ff"
       opacity="0.2"
       empopacity="0.4"
       empspacing="1"
       visible="true"
       enabled="true" />
  </sodipodi:namedview>
  <metadata
     id="metadata1312">
    <rdf:RDF>
      <cc:Work
         rdf:about="">
        <dc:format>image/svg+xml</dc:format>
        <dc:type
           rdf:resource="http://purl.org/dc/dcmitype/StillImage" />
        <cc:license
           rdf:resource="http://creativecommons.org/licenses/GPL/2.0/" />
        <dc:contributor>
          <cc:Agent>
            <dc:title>Oxygen team</dc:title>
          </cc:Agent>
        </dc:contributor>
        <dc:title></dc:title>
      </cc:Work>
      <cc:License
         rdf:about="http://creativecommons.org/licenses/LGPL/2.1/">
        <cc:permits
           rdf:resource="http://web.resource.org/cc/Reproduction" />
        <cc:permits
           rdf:resource="http://web.resource.org/cc/Distribution" />
        <cc:requires
           rdf:resource="http://web.resource.org/cc/Notice" />
        <cc:permits
           rdf:resource="http://web.resource.org/cc/DerivativeWorks" />
        <cc:requires
           rdf:resource="http://web.resource.org/cc/ShareAlike" />
        <cc:requires
           rdf:resource="http://web.resource.org/cc/SourceCode" />
      </cc:License>
    </rdf:RDF>
  </metadata>
  <g
     id="layer1"
     inkscape:label="Layer 1"
     inkscape:groupmode="layer">
    <g
       id="g894"
       transform="matrix(0.74999783,0,0,0.74999783,3.9993747,5.269979)">
      <rect
         style="opacity:1;fill:url(#linearGradient896);fill-opacity:1;fill-rule:nonzero;stroke:none;stroke-width:18.2854805;stroke-linecap:round;stroke-linejoin:round;stroke-miterlimit:4;stroke-dasharray:none;stroke-dashoffset:4;stroke-opacity:1"
         id="rect888"
         transform="matrix(0,1,1,0,0,0)"
         y="-5.3325152"
         x="-7.026659"
         ry="53.333488"
         rx="53.333488"
         height="106.66698"
         width="106.66698" />
      <rect
         style="fill:url(#linearGradient898);fill-opacity:1;fill-rule:evenodd;stroke:none;stroke-width:73.141922;stroke-linecap:round;stroke-linejoin:round;stroke-miterlimit:4;stroke-dasharray:none;stroke-opacity:1"
         id="rect890"
         transform="matrix(0,1,1,0,0,0)"
         y="5.3341823"
         x="3.6400385"
         ry="42.66679"
         rx="42.66679"
         height="85.33358"
         width="85.33358" />
      <path
         style="fill:url(#linearGradient900);fill-opacity:1;fill-rule:evenodd;stroke:none;stroke-width:6.85703516px;stroke-linecap:butt;stroke-linejoin:miter;stroke-opacity:1"
         d="M 63.167969 17.896484 C 47.686163 23.599277 27.035191 26.018815 10.419922 27.744141 C 8.8630983 31.516151 8 35.652914 8 40 C 8 48.40425 11.210056 56.028058 16.472656 61.726562 C 35.261722 53.586168 56.393841 42.476584 70.496094 30.253906 C 69.009055 25.568368 66.474577 21.362227 63.167969 17.896484 z "
         transform="matrix(1.3333372,0,0,1.3333372,-5.332515,-7.026659)"
         id="path892" />
    </g>
    <g
       transform="matrix(0.74999783,0,0,0.74999783,27.999375,29.269979)"
       id="g1571">
      <rect
         width="106.66698"
         height="106.66698"
         rx="40.972454"
         ry="38.251125"
         x="-7.026659"
         y="-5.3325152"
         transform="matrix(0,1,1,0,0,0)"
         id="rect1565"
         style="opacity:1;fill:url(#linearGradient1573);fill-opacity:1;fill-rule:nonzero;stroke:none;stroke-width:18.2854805;stroke-linecap:round;stroke-linejoin:round;stroke-miterlimit:4;stroke-dasharray:none;stroke-dashoffset:4;stroke-opacity:1" />
      <rect
         width="85.33358"
         height="85.33358"
         rx="26.082153"
         ry="31.84684"
         x="3.6400385"
         y="5.3341823"
         transform="matrix(0,1,1,0,0,0)"
         id="rect1567"
         style="fill:url(#linearGradient1575);fill-opacity:1;fill-rule:evenodd;stroke:none;stroke-width:73.141922;stroke-linecap:round;stroke-linejoin:round;stroke-miterlimit:4;stroke-dasharray:none;stroke-opacity:1" />
      <path
         style="fill:url(#linearGradient1577);fill-opacity:1;fill-rule:evenodd;stroke:none;stroke-width:6.85703516px;stroke-linecap:butt;stroke-linejoin:miter;stroke-opacity:1"
         d="M 99.535156,40.152344 C 83.077677,47.439911 58.547104,50.093654 40,52 v 24.4375 c 0,4.132369 1.552867,7.956009 4.203125,11.107422 C 64.632217,79.009877 88.888413,66.628968 104,52.951172 V 51.5625 c 0,-4.26609 -1.65573,-8.202179 -4.464844,-11.410156 z"
         transform="matrix(1.3333372,0,0,1.3333372,-47.999306,-39.026752)"
         id="path1569"
         inkscape:connector-curvature="0" />
    </g>
    <g
       id="g32319"
       transform="matrix(0.74999783,0,0,0.74999783,51.999375,53.269979)">
      <rect
         style="opacity:1;fill:url(#linearGradient5501);fill-opacity:1;fill-rule:nonzero;stroke:none;stroke-width:18.2854805;stroke-linecap:round;stroke-linejoin:round;stroke-miterlimit:4;stroke-dasharray:none;stroke-dashoffset:4;stroke-opacity:1"
         id="rect5489"
         transform="matrix(0,1,1,0,0,0)"
         y="-5.3325152"
         x="-7.026659"
         ry="4.219727"
         rx="3.628262"
         height="106.66698"
         width="106.66698" />
      <rect
         style="fill:url(#linearGradient5503);fill-opacity:1;fill-rule:evenodd;stroke:none;stroke-width:73.141922;stroke-linecap:round;stroke-linejoin:round;stroke-miterlimit:4;stroke-dasharray:none;stroke-opacity:1"
         id="rect5491"
         transform="matrix(0,1,1,0,0,0)"
         y="5.3341823"
         x="3.6400385"
         ry="2.0317206"
         rx="1.6879668"
         height="85.33358"
         width="85.33358" />
      <path
         inkscape:connector-curvature="0"
         style="fill:url(#linearGradient5505);fill-opacity:1;fill-rule:evenodd;stroke:none;stroke-width:9.14274025px;stroke-linecap:butt;stroke-linejoin:miter;stroke-opacity:1"
         id="path5493"
         d="M 90.667762,31.573906 C 69.118094,51.078937 33.618085,68.609288 5.3341821,79.999954 V 30.306782 C 32.41264,27.523549 69.066163,23.551079 90.667762,11.573906 Z"
         sodipodi:nodetypes="ccccc" />
    </g>
  </g>
</svg>
